X:131
T:Rachel Dafydd Ifan
M:2/4
L:1/16
Q:100
C:Trad. arr. J.T.
R:Processional
N:Aeolian mode arrangement
K:G
EF | G2GE G2GE | BcBA G2B2 | F2FD F2FG | ABAG AG
FE | G2GE G2GE | BcBA G2B2 | A2AF D2BA | GFED E2
:||: F2 | E3E E2G2 | BcBA G2B2 | E3E E2B2 |
ABAG F2E2 | E3E E2G2 | BcBA G2B2 | A2AF DFBA |
GFED E2 :||
